X:208
T:Allons au Bois  - schottische/schottisch/scottish
O:england
C:traditionell Haute Vienne
N:please mail errors to: simon.wascher@chello.at
M:2/4
L:1/16
K:G
d2d2 e2d2|c2d2 B2G2|ABcA B2G2|ABcA B2B2|
d2d2 e2d2|c2d2 B2G2|ABcA B2AG|FGAFG4:|
|:G2FE D2D2|GFGA B2B2|cdcA B2AG|AGAd B2G2|
G2FE D2D2|GFGA B2B2|cdcA B2AG|FGAFG4:|
